X:24
T:Aus meines Herzens Grunde (bass line)
C:J. S. Bach
M:3/4
L:1/4
%%MIDI program 43 % Contrabass
K:G
G,,|G,E,F,|G,D,E,|C,B,,/A,,/G,,|HD,2 G,,|F,,G,,A,,|B,,C,D,|HG,,2:||G,,|G,,A,,B,,|B,,>A,,G,,|
HD,2 E,-|E, D,C,|B,,>C,D,|G,,/A,,/B,,G,,|HC,2 G,,|F,,G,,A,,|B,,G,,D,|E,/D,/C,/B,,/A,,/G,,/|HD,2 G,-|G,F,E,-|E,/D,/C,D,|HG,,2||

%%newpage

